apps/dialog/public/ui/token-icons/cbbtc.svg

<svg width="192" height="192" viewBox="0 0 32 32" fill="none" xmlns="http://www.w3.org/2000/svg">
<path d="M16 32C24.8366 32 32 24.8366 32 16C32 7.16344 24.8366 0 16 0C7.16344 0 0 7.16344 0 16C0 24.8366 7.16344 32 16 32Z" fill="white"/>
<path d="M23.032 14.02C23.346 11.924 21.749 10.797 19.567 10.045L20.275 7.205L18.547 6.775L17.857 9.54C17.403 9.426 16.937 9.32 16.472 9.214L17.167 6.431L15.439 6L14.731 8.839C14.355 8.753 13.985 8.669 13.627 8.579L13.629 8.57L11.245 7.975L10.785 9.821C10.785 9.821 12.068 10.115 12.041 10.133C12.741 10.308 12.867 10.771 12.846 11.139L12.04 14.374C12.088 14.386 12.15 14.404 12.22 14.431L12.037 14.386L10.907 18.918C10.821 19.13 10.604 19.449 10.114 19.328C10.132 19.353 8.858 19.015 8.858 19.015L8 20.993L10.25 21.554C10.668 21.659 11.078 21.769 11.481 21.872L10.766 24.744L12.493 25.174L13.201 22.334C13.673 22.461 14.131 22.579 14.579 22.691L13.873 25.519L15.601 25.949L16.316 23.083C19.264 23.641 21.48 23.416 22.413 20.75C23.165 18.604 22.376 17.365 20.825 16.558C21.955 16.298 22.805 15.555 23.032 14.02ZM19.082 19.558C18.549 21.705 14.934 20.544 13.762 20.253L14.712 16.448C15.884 16.741 19.641 17.32 19.082 19.558ZM19.617 13.989C19.13 15.942 16.122 14.949 15.147 14.706L16.007 11.256C16.982 11.499 20.125 11.952 19.617 13.989Z" fill="#0052FF"/>
<path fill-rule="evenodd" clip-rule="evenodd" d="M16 30.5C24.0081 30.5 30.5 24.0081 30.5 16C30.5 7.99187 24.0081 1.5 16 1.5C7.99187 1.5 1.5 7.99187 1.5 16C1.5 24.0081 7.99187 30.5 16 30.5ZM32 16C32 24.8366 24.8366 32 16 32C7.16344 32 0 24.8366 0 16C0 7.16344 7.16344 0 16 0C24.8366 0 32 7.16344 32 16Z" fill="#0052FF"/>
</svg>

<svg xmlns="http://www.w3.org/2000/svg" width="192" height="192" fill="none" viewBox="0 0 32 32"><path fill="#fff" d="M16 32c8.837 0 16-7.163 16-16S24.837 0 16 0 0 7.163 0 16s7.163 16 16 16"/><path fill="#0052ff" d="M23.032 14.02c.314-2.096-1.283-3.223-3.465-3.975l.708-2.84-1.728-.43-.69 2.765c-.454-.114-.92-.22-1.385-.326l.695-2.783L15.439 6l-.708 2.839q-.566-.127-1.104-.26l.002-.009-2.384-.595-.46 1.846s1.283.294 1.256.312c.7.175.826.638.805 1.006l-.806 3.235q.073.017.18.057l-.183-.045-1.13 4.532c-.086.212-.303.531-.793.41.018.025-1.256-.313-1.256-.313L8 20.993l2.25.561c.418.105.828.215 1.231.318l-.715 2.872 1.727.43.708-2.84q.707.19 1.378.357l-.706 2.828 1.728.43.715-2.866c2.948.558 5.164.333 6.097-2.333.752-2.146-.037-3.385-1.588-4.192 1.13-.26 1.98-1.003 2.207-2.538m-3.95 5.538c-.533 2.147-4.148.986-5.32.695l.95-3.805c1.172.293 4.929.872 4.37 3.11m.535-5.569c-.487 1.953-3.495.96-4.47.717l.86-3.45c.975.243 4.118.696 3.61 2.733"/><path fill="#0052ff" fill-rule="evenodd" d="M16 30.5c8.008 0 14.5-6.492 14.5-14.5S24.008 1.5 16 1.5 1.5 7.992 1.5 16 7.992 30.5 16 30.5M32 16c0 8.837-7.163 16-16 16S0 24.837 0 16 7.163 0 16 0s16 7.163 16 16" clip-rule="evenodd"/></svg>
